X:28
T:Mazurka de Lorberezh
I:last changed 14/2/2016
F:http://www.campin.me.uk/Music/Edinbal.abc
C:Thomas Moisson
M:9/8
L:1/8
K:AMin
E A2 B|c3- c2 B A2c|B3- B2B A2B|d2c B2A G2B|E3- E2
E^F2^G|A2B A2^G A2B|c3- c2B A2c|B2e e2d c2B|A3- A2:|
A B2 c|d3- d2 f e2d|c3- c2c d2c|B3- B2d c2B|c3  A2
A B2 c|d2e f2 g a2f|e3  Bcd edc|B2e e2d c2B|A3- A2:|

